icons/square-arrow-right-outline.svg

<svg xmlns="http://www.w3.org/2000/svg" width="24" height="24" viewBox="0 0 24 24">
  <path d="M19,2 C20.6568542,2 22,3.34314575 22,5 L22,5 L22,19 C22,20.6568542 20.6568542,22 19,22 L19,22 L5,22 C3.34314575,22 2,20.6568542 2,19 L2,19 L2,5 C2,3.34314575 3.34314575,2 5,2 L5,2 Z M19,4 L5,4 C4.44771525,4 4,4.44771525 4,5 L4,5 L4,19 C4,19.5522847 4.44771525,20 5,20 L5,20 L19,20 C19.5522847,20 20,19.5522847 20,19 L20,19 L20,5 C20,4.44771525 19.5522847,4 19,4 L19,4 Z M17.777,11.371 L17.781,11.375 L17.779,11.374 L17.7818534,11.3764773 L17.8135366,11.4182204 L17.8135366,11.4182204 C17.8274737,11.4377852 17.8410808,11.4583066 17.8539326,11.4793398 C17.8622728,11.4928304 17.8701389,11.5064305 17.8776583,11.5201698 C17.8868931,11.5371537 17.8959557,11.5549095 17.9044938,11.5729619 C17.9140881,11.5932325 17.9226898,11.613165 17.930613,11.6333026 C17.9375547,11.6508514 17.9440997,11.6689468 17.9501291,11.6872762 C17.9551048,11.7025958 17.9598259,11.7182588 17.9641549,11.734007 C17.9701664,11.7555635 17.9753602,11.7772539 17.9798348,11.7992059 C17.9832978,11.8166247 17.9863719,11.834051 17.9889822,11.8515331 C17.991899,11.8705796 17.994252,11.8903051 17.9960225,11.9101982 L17.9982669,11.9409686 L17.9982669,11.9409686 L17.9998167,11.9806591 C17.9999387,11.9870914 18,11.9935385 18,12 L17.999,12.0181458 L17.9982669,12.0590314 L17.9972736,12.0740195 L17.9972736,12.0740195 L17.997,12.075 L17.9889807,12.1489612 L17.9889807,12.1489612 C17.9863441,12.1661068 17.9832818,12.1834538 17.9797599,12.2007258 C17.9753602,12.2227461 17.9701664,12.2444365 17.964279,12.2658396 C17.9599023,12.2814633 17.9552713,12.2968513 17.9502619,12.3121425 C17.9438775,12.3317977 17.9366843,12.3515792 17.928896,12.3710585 L17.9063266,12.4232215 L17.9063266,12.4232215 C17.897529,12.4419547 17.8881407,12.4604898 17.8782035,12.4786822 C17.8701866,12.4935488 17.8613648,12.5087703 17.8521085,12.5238 C17.8384932,12.5456983 17.8245831,12.5664533 17.8099369,12.5866395 C17.8037205,12.5953343 17.7970905,12.6041603 17.7902954,12.6128994 C17.7848777,12.6197272 17.7826022,12.6225945 17.7803112,12.625449 L17.7071068,12.7071068 L14.0502525,16.363961 C13.6597282,16.7544853 13.0265633,16.7544853 12.636039,16.363961 C12.275555,16.0034771 12.2478255,15.436246 12.5528504,15.0439548 L12.636039,14.9497475 L14.586,12.9991458 L7,13 C6.44771525,13 6,12.5522847 6,12 C6,11.4871642 6.38604019,11.0644928 6.88337887,11.0067277 L7,11 L14.586,10.9991458 L12.636039,9.05025253 C12.2455147,8.65972824 12.2455147,8.02656326 12.636039,7.63603897 C12.9965229,7.27555501 13.563754,7.24782547 13.9560452,7.55285036 L14.0502525,7.63603897 L17.7071068,11.2928932 L17.7633128,11.3538862 L17.7633128,11.3538862 L17.774,11.367 L17.761,11.353 L17.777,11.371 Z"/>
</svg>

<svg xmlns="http://www.w3.org/2000/svg" viewBox="0 0 24 24">
  <path d="M19 2a3 3 0 0 1 3 3v14a3 3 0 0 1-3 3H5a3 3 0 0 1-3-3V5a3 3 0 0 1 3-3zm0 2H5a1 1 0 0 0-1 1v14a1 1 0 0 0 1 1h14a1 1 0 0 0 1-1V5a1 1 0 0 0-1-1zm-1.22 7.37.03.05a1.04 1.04 0 0 1 .19.49v.16l-.01.08a1.09 1.09 0 0 1-.06.22l-.02.05a1.02 1.02 0 0 1-.13.2l-.07.09-3.66 3.65a1 1 0 0 1-1.5-1.32l.09-.09L14.59 13H7a1 1 0 0 1-.12-2h7.71l-1.95-1.95a1 1 0 0 1 1.32-1.5l.09.09 3.66 3.65.05.06.01.02v-.02.02z"/>
</svg>
